modules/themify-icons/icons/layout-sidebar-2.svg

<?xml version="1.0" encoding="utf-8"?>
<!-- Generated by IcoMoon.io -->
<!DOCTYPE svg PUBLIC "-//W3C//DTD SVG 1.1//EN" "http://www.w3.org/Graphics/SVG/1.1/DTD/svg11.dtd">
<svg version="1.1" xmlns="http://www.w3.org/2000/svg" xmlns:xlink="http://www.w3.org/1999/xlink" width="17" height="17" viewBox="0 0 17 17">
<g>
</g>
	<path d="M17 0v17h-4v-17h4zM0 17h3v-17h-3v17zM11 17h1v-1h-1v1zM7.571 17h0.857v-1h-0.857v1zM9.286 17h0.857v-1h-0.857v1zM5.857 17h0.857v-1h-0.857v1zM4 17h1v-1h-1v1zM4 3h1v-1h-1v1zM4 13h1v-1h-1v1zM4 15h1v-1h-1v1zM4 11h1v-1h-1v1zM4 7h1v-1h-1v1zM4 5h1v-1h-1v1zM4 9h1v-1h-1v1zM4 1h1v-1h-1v1zM5.857 1h0.857v-1h-0.857v1zM9.286 1h0.857v-1h-0.857v1zM7.571 1h0.857v-1h-0.857v1zM11 1h1v-1h-1v1zM11 5h1v-1h-1v1zM11 3h1v-1h-1v1zM11 7h1v-1h-1v1zM11 9h1v-1h-1v1zM11 15h1v-1h-1v1zM11 13h1v-1h-1v1zM11 11h1v-1h-1v1z" fill="#000000" />
</svg>

<svg xmlns="http://www.w3.org/2000/svg" width="17" height="17"><path d="M17 0v17h-4V0h4zM0 17h3V0H0v17zm11 0h1v-1h-1v1zm-3.429 0h.857v-1h-.857v1zm1.715 0h.857v-1h-.857v1zm-3.429 0h.857v-1h-.857v1zM4 17h1v-1H4v1zM4 3h1V2H4v1zm0 10h1v-1H4v1zm0 2h1v-1H4v1zm0-4h1v-1H4v1zm0-4h1V6H4v1zm0-2h1V4H4v1zm0 4h1V8H4v1zm0-8h1V0H4v1zm1.857 0h.857V0h-.857v1zm3.429 0h.857V0h-.857v1zM7.571 1h.857V0h-.857v1zM11 1h1V0h-1v1zm0 4h1V4h-1v1zm0-2h1V2h-1v1zm0 4h1V6h-1v1zm0 2h1V8h-1v1zm0 6h1v-1h-1v1zm0-2h1v-1h-1v1zm0-2h1v-1h-1v1z"/></svg>
